X:1
T:Russian Hymn, 11.10.11.9
T:Alexis Fyodorovich Lvov, 1833
T:Russian Hymn, 11.10.11.9
T:Public Domain
C:Alexis Fyodorovich Lvov, 1833
Z:Public Domain
%%score ( 1 2 ) ( 3 4 )
L:1/8
M:4/4
K:C
V:1 treble 
V:2 treble 
V:3 bass 
V:4 bass 
V:1
 [CG]4 [CA]2 [CA]2 | [CG]3 [CE] C4 | [Cc]4 [CB]2 [CA]2 | [CG]4 [^CA]4 | [DF]4 [DG]2 [DG]2 | %5
 [CE]4 [CE]2 [E^F]2 | [EG]4 [^D^F]2 [DF]2 | E8 | [B,F]4 [B,E]2 [B,D]2 | [CE]4 [CE]2 [DE]2 | %10
 C2 z B [EA]2 [D^G]2 | [CA]4 [B,G]4 | [Cc]4 [CB]2 [CA]2 | (C2 ^A,2) [=A,G]2 [DF]2 | [CE]4 [B,D]4 | %15
 C8 |] %16
V:2
 x8 | x4 C4 | x8 | x8 | x8 | x8 | x8 | B,8 | x8 | x8 | c3 F2 x3 | x8 | x8 | G4 x4 | x8 | C8 |] %16
V:3
 [C,E,]4 [F,,F,]2 [A,,F,]2 | [C,E,]3 [C,G,] [C,C]4 | [F,,A,]4 [F,,G,]2 [A,,F,]2 | %3
 [C,E,]4 (E,2 A,2) | [D,A,]4 [B,,G,]2 [B,,G,]2 | [C,G,]4 [C,G,]2 [A,,C]2 | %6
 [B,,B,]4 [B,,B,]2 [B,,A,]2 | [E,G,]8 | [G,,D,]4 [G,,G,]2 [G,,F,]2 | [C,E,]4 [C,G,]2 [B,,^G,]2 | %10
 A,,2 z B, [E,C]2 [E,,B,]2 | (A,2 D,2) (E,2 F,2) | [A,,E,]4 [G,,E,]2 [F,,F,]2 | %13
 ([C,,C,]2 [C,,^C,]2) [D,,D,]2 [F,,A,]2 | [G,,G,]4 (G,2 F,2) | [C,E,]8 |] %16
V:4
 x8 | x8 | x8 | x4 A,,4 | x8 | x8 | x8 | x8 | x8 | x8 | A,3 D,2 x3 | F,,4 G,,4 | x8 | E,4 x4 | %14
 x4 G,,4 | x8 |] %16

